assets/stickers/shapes/stickers/imgly_sticker_shapes_badge_18.svg

<svg height="2000" viewBox="0 0 1198 2000" width="1198" xmlns="http://www.w3.org/2000/svg"><path d="m0 0v2000l598.56-331.114 598.56 331.114v-2000zm1108.565 1868.76-257.487-141.952-252.518-139.521-254.663 140.739-259.645 143.156-14.077 7.762.042-16.037 1.103-426.544 1.817-426.544 1.208-213.271 1.479-213.272 1.72-213.271.993-106.638 1.138-106.636 1.14 106.636.993 106.638 1.72 213.271 1.479 213.272 1.208 213.271 1.819 426.544 1.059 410.502 245.247-136.115 259.383-143.627 4.84-2.68 4.837 2.68 257.209 142.457 243.135 134.957.938-408.464 1.678-424.445 1.13-212.225 1.397-212.224 1.638-212.226.948-106.11 1.09-106.111 1.16 106.11 1.021 106.11 1.775 212.225 1.539 212.223 1.271 212.224 1.957 424.444 1.256 424.446.047 15.975z" fill="#fff" transform=""/></svg>

<?xml version="1.0" encoding="UTF-8"?>
<svg width="1198px" height="2000px" viewBox="0 0 1198 2000" version="1.1" xmlns="http://www.w3.org/2000/svg" xmlns:xlink="http://www.w3.org/1999/xlink">
    <!-- Generator: Sketch 43.1 (39012) - http://www.bohemiancoding.com/sketch -->
    <title>imgly_sticker_shapes_badge_18</title>
    <desc>Created with Sketch.</desc>
    <defs></defs>
    <g id="Page-1" stroke="none" stroke-width="1" fill="none" fill-rule="evenodd">
        <g id="Artboard" transform="translate(-4243.000000, -13784.000000)" fill-rule="nonzero" fill="#FFFFFF">
            <g id="badge_18" transform="translate(4243.000000, 13784.000000)">
                <path d="M0,0 L0,2000 L598.56,1668.886 L1197.12,2000 L1197.12,0 L0,0 Z M1108.565,1868.76 L851.078,1726.808 L598.56,1587.287 L343.897,1728.026 L84.252,1871.182 L70.175,1878.944 L70.217,1862.907 L71.32,1436.363 L73.137,1009.819 L74.345,796.548 L75.824,583.276 L77.544,370.005 L78.537,263.367 L79.675,156.731 L80.815,263.367 L81.808,370.005 L83.528,583.276 L85.007,796.548 L86.215,1009.819 L88.034,1436.363 L89.093,1846.865 L334.34,1710.75 L593.723,1567.123 L598.563,1564.443 L603.4,1567.123 L860.609,1709.58 L1103.744,1844.537 L1104.682,1436.073 L1106.36,1011.628 L1107.49,799.403 L1108.887,587.179 L1110.525,374.953 L1111.473,268.843 L1112.563,162.732 L1113.723,268.842 L1114.744,374.952 L1116.519,587.177 L1118.058,799.4 L1119.329,1011.624 L1121.286,1436.068 L1122.542,1860.514 L1122.589,1876.489 L1108.565,1868.76 Z" id="Shape"></path>
            </g>
        </g>
    </g>
</svg>
